X:1
T:What Would Jesus Do?
T:What Would Jesus Do?
T:Edwin Othello Excell
T:Lanta Wilson Smith, 1898
T:Public Domain Courtesy of the Cyber Hymnal™
C:Edwin Othello Excell
Z:Public Domain
Z:Courtesy of the Cyber Hymnal™
%%score 1 ( 2 3 )
L:1/8
Q:1/4=110
M:6/8
K:Bb
V:1 treble 
V:2 bass 
V:3 bass 
V:1
 [DF]2 [DF] [DG]2 [DG] | [EF]3 [EA]3 | [DB]2 [DB] [Ec]2 [Ec] | [DB]6 | [DF]2 [DF] [DG]2 [DG] | %5
w: 1.~There’s a voice that|whis- pers|To the will- ing|heart,|And its words so|
w: 2.~When some strong temp-|ta- tion|Holds you in its|power,|When a fear of|
w: 3.~Then no long- er|fal- ter,|Then no long- er|fear,|Ev- ery path of|
 [EF]3 [EA]3 | [=Ec]2 [EG] [EA]2 [EB] | [Ec]6 | [Fd]2 [Fd] [Ec]2 [CA] | [DB]3 [DF]3 | %10
w: ten- der|Joy and peace im-|part;|When in doubt or|trou- ble,|
w: fail- ure|Haunts each wak- ing|hour,|You can end the|con- flict|
w: du- ty|Will be bright and|clear;|If you pray for|wis- dom,|
 [Fd]2 [Fd] [Ec]2 [EA] | [DB]6 | [EG]2 [EG] [GB]2 [EG] | [DF]3 !fermata![Fd]3 | %14
w: To your heart be|true,|Hear the Spir- it|say- ing:|
w: And your fears sub-|due,|If you heed the|mess- age,|
w: It will come to|you,|While the Spir- it|whis- pers,|
 [Ec]2 [DB] [Fd]2 [Ec] | [DB]6 ||"^Refrain" [Fd]2 [Fd] [Fd]2 [Ec] | [DB]6 | [DF]2 [DF] [DF]2 [CE] | %19
w: What would Je- sus|do?||||
w: What would Je- sus|do?|What would Je- sus|do?|What would Je- sus|
w: What would Je- sus|do?||||
 [B,D]6 | [DF]2 [DB] [EA]2 [Ec] | [DB]3 !fermata![Fd]3 | [Ec]2 [DB] [Fd]2 [Ec] | [DB]6 |] %24
w: |||||
w: do?|Hear the Spir- it|say- ing:|What would Je- sus|do?|
w: |||||
V:2
 [B,,B,]2 [B,,B,] [B,,B,]2 [B,,B,] | [C,A,]3 [F,C]3 | [F,B,]2 [F,B,] [F,A,]2 [F,A,] | [B,,B,]6 | %4
 [B,,B,]2 [B,,B,] [B,,B,]2 [B,,B,] | [C,A,]3 [F,C]3 | [C,B,]2 [C,B,] [C,B,]2 [C,G,] | [F,A,]6 | %8
 [B,,B,]2 [B,,B,] [B,,F,]2 [B,,F,] | [B,,F,]3 [B,,B,]3 | [F,B,]2 [F,B,] [F,A,]2 [F,C] | [B,,B,]6 | %12
 [E,B,]2 [E,B,] [E,B,]2 [E,B,] | [B,,B,]3 [B,,B,]3 | [F,A,]2 [F,B,] [F,B,]2 F, | [B,,F,]6 || %16
 [B,,B,]2 [B,,B,] [B,,B,]2 [B,,F,] | [B,,F,]6 | F,2 F, F,2 F, | [B,,F,]6 | %20
 [B,,B,]2 [B,,B,] [F,C]2 [F,A,] | [B,,B,]3 [B,,B,]3 | [F,A,]2 [F,B,] F,2 F, | [B,,F,]6 |] %24
V:3
 x6 | x6 | x6 | x6 | x6 | x6 | x6 | x6 | x6 | x6 | x6 | x6 | x6 | x6 | x5 F, | x6 || x6 | x6 | %18
 F,2 F, F,2 F, | x6 | x6 | x6 | x3 F,2 F, | x6 |] %24

